contents/blog/dbt-with-marquez/banner.svg

<svg width="100%" height="100%" id="Layer_1" data-name="Layer 1" xmlns="http://www.w3.org/2000/svg" viewBox="0 0 770 190"><defs><style>.cls-1{fill:#cfc8c0;}.cls-2{fill:#010101;}.cls-10,.cls-11,.cls-12,.cls-13,.cls-14,.cls-15,.cls-16,.cls-2,.cls-3,.cls-4,.cls-5,.cls-6,.cls-7,.cls-8,.cls-9{fill-opacity:0.5;}.cls-3{fill:#2a3117;}.cls-4{fill:#767e46;}.cls-5{fill:#1e2a16;}.cls-6{fill:#c3d1a6;}.cls-7{fill:#51647c;}.cls-8{fill:#03858e;}.cls-9{fill:#ffe284;}.cls-10{fill:#d59164;}.cls-11{fill:#082027;}.cls-12{fill:#79613e;}.cls-13{fill:#f3c915;}.cls-14{fill:#ed2224;}.cls-15{fill:#2b99d5;}.cls-16{fill:#f2d0ad;}</style></defs><rect class="cls-1" x="-7.6" y="-151.31" width="680" height="445.95"/><path class="cls-2" d="M289.9,258.39l494.7-69.7-61.2-423.3-494.7,69.7Z"/><path class="cls-3" d="M87.6,258.39l741.2,156.4L932.5-85,191.3-239.71Z"/><path class="cls-4" d="M128.4-144.51-238.8,88.39,9.4,477.69l367.2-232.9Z"/><path class="cls-5" d="M393.6,212.49l59.5,217.6L718.3,357l-59.5-217.6Z"/><path class="cls-6" d="M102.9-52.71l-81.6,323,105.4,25.5,81.6-323Z"/><path class="cls-7" d="M153.9-91.81,138.6,22.09l561,68,15.3-113.9Z"/><path class="cls-8" d="M7.7,17,2.6,56.09,312,86.69l5.1-39.1Z"/><path class="cls-9" d="M-2.5,57.79l-20.4,81.6,202.3,51,20.4-81.6Z"/><path class="cls-10" d="M92.7-141.11-181,49.29l62.9,86.7,272-190.4Z"/><path class="cls-11" d="M572.1-95.21,827.1,357l171.7-96.9-255-450.5Z"/><path class="cls-12" d="M296.7,18.69l17,163.2,521.9-57.8-17-163.2Z"/><path class="cls-2" d="M240.6,132.59,57,363.79l62.9,49.3,183.6-231.2Z"/><path class="cls-13" d="M657.1,96.89l-365.5,15.3v13.6l365.5-15.3Z"/><path class="cls-2" d="M218.5,125.79l533.8,5.1v-6.8L218.5,119Z"/><path class="cls-14" d="M551.7,90.09l193.8,8.5V85l-193.8-8.5Z"/><path class="cls-15" d="M106.3,42.49l-1.7,17,1048.9,23.8,1.7-17Z"/><path class="cls-14" d="M546.6,74.79l-668.1,6.8,1.7,15.3,666.4-6.8Z"/><path class="cls-16" d="M26.4,18.69l122.4,35.7,18.7-62.9L45.1-44.21Z"/></svg>

<?xml version="1.0" encoding="UTF-8" standalone="no"?>
<!DOCTYPE svg PUBLIC "-//W3C//DTD SVG 1.1//EN" "http://www.w3.org/Graphics/SVG/1.1/DTD/svg11.dtd">
<!-- Created with Vectornator (http://vectornator.io/) -->
<svg height="100%" stroke-miterlimit="10" style="fill-rule:nonzero;clip-rule:evenodd;stroke-linecap:round;stroke-linejoin:round;" version="1.1" viewBox="0 0 770 190" width="100%" xml:space="preserve" xmlns="http://www.w3.org/2000/svg" xmlns:vectornator="http://vectornator.io" xmlns:xlink="http://www.w3.org/1999/xlink">
<defs/>
<clipPath id="ArtboardFrame">
<rect height="190" width="770" x="0" y="0"/>
</clipPath>
<g clip-path="url(#ArtboardFrame)" id="Untitled" vectornator:layerName="Untitled">
<path d="M-7.6-151.31L672.4-151.31L672.4-151.31L672.4 294.64L672.4 294.64L-7.6 294.64L-7.6 294.64L-7.6-151.31L-7.6-151.31Z" fill="#cfc8c0" fill-rule="nonzero" opacity="1" stroke="none"/>
<path d="M289.9 258.39L784.6 188.69L723.4-234.61L228.7-164.91L289.9 258.39Z" fill="#010101" fill-rule="nonzero" opacity="1" stroke="none"/>
<path d="M87.6 258.39L828.8 414.79L932.5-85L191.3-239.71L87.6 258.39Z" fill="#2a3117" fill-rule="nonzero" opacity="1" stroke="none"/>
<path d="M128.4-144.51L-238.8 88.39L9.4 477.69L376.6 244.79L128.4-144.51Z" fill="#767e46" fill-rule="nonzero" opacity="1" stroke="none"/>
<path d="M393.6 212.49L453.1 430.09L718.3 357L658.8 139.4L393.6 212.49Z" fill="#1e2a16" fill-rule="nonzero" opacity="1" stroke="none"/>
<path d="M102.9-52.71L21.3 270.29L126.7 295.79L208.3-27.21L102.9-52.71Z" fill="#c3d1a6" fill-rule="nonzero" opacity="1" stroke="none"/>
<path d="M153.9-91.81L138.6 22.09L699.6 90.09L714.9-23.81L153.9-91.81Z" fill="#51647c" fill-rule="nonzero" opacity="1" stroke="none"/>
<path d="M7.7 17L2.6 56.09L312 86.69L317.1 47.59L7.7 17Z" fill="#03858e" fill-rule="nonzero" opacity="1" stroke="none"/>
<path d="M-2.5 57.79L-22.9 139.39L179.4 190.39L199.8 108.79L-2.5 57.79Z" fill="#ffe284" fill-rule="nonzero" opacity="1" stroke="none"/>
<path d="M92.7-141.11L-181 49.29L-118.1 135.99L153.9-54.41L92.7-141.11Z" fill="#d59164" fill-rule="nonzero" opacity="1" stroke="none"/>
<path d="M572.1-95.21L827.1 357L998.8 260.1L743.8-190.4L572.1-95.21Z" fill="#082027" fill-rule="nonzero" opacity="1" stroke="none"/>
<path d="M296.7 18.69L313.7 181.89L835.6 124.09L818.6-39.11L296.7 18.69Z" fill="#79613e" fill-rule="nonzero" opacity="1" stroke="none"/>
<path d="M240.6 132.59L57 363.79L119.9 413.09L303.5 181.89L240.6 132.59Z" fill="#010101" fill-rule="nonzero" opacity="1" stroke="none"/>
<path d="M657.1 96.89L291.6 112.19L291.6 125.79L657.1 110.49L657.1 96.89Z" fill="#f3c915" fill-rule="nonzero" opacity="1" stroke="none"/>
<path d="M218.5 125.79L752.3 130.89L752.3 124.09L218.5 119L218.5 125.79Z" fill="#010101" fill-rule="nonzero" opacity="1" stroke="none"/>
<path d="M551.7 90.09L745.5 98.59L745.5 85L551.7 76.5L551.7 90.09Z" fill="#ed2224" fill-rule="nonzero" opacity="1" stroke="none"/>
<path d="M106.3 42.49L104.6 59.49L1153.5 83.29L1155.2 66.29L106.3 42.49Z" fill="#2b99d5" fill-rule="nonzero" opacity="1" stroke="none"/>
<path d="M546.6 74.79L-121.5 81.59L-119.8 96.89L546.6 90.09L546.6 74.79Z" fill="#ed2224" fill-rule="nonzero" opacity="1" stroke="none"/>
<path d="M26.4 18.69L148.8 54.39L167.5-8.51L45.1-44.21L26.4 18.69Z" fill="#f2d0ad" fill-rule="nonzero" opacity="1" stroke="none"/>
</g>
</svg>
